X: 218
%
U:~=!turn!
U:k=!crescendo(!
U:m=!crescendo)!
T: Gun bris mo chridh' on dh'fhalbh thu
T: My Heart Is Broke since Thy Departure
C: From Capt. Fraser's Collection
O:Scotland
B:Keith Norman MacDonald : "The Skye collection of the best reels & strathspeys extant" : 1887
Z:Ralph Palmer
R:Air
M:C
L:1/8
K:F
"Slow and pathetic." [A,/F/]>G/ | [FA]>[GB][Ac]>[Bd] [Ac][FA][FA]z/B/ | "_cres."[Ac]>f Tf/e/f/g/ [c2f2a2] [eg] z/F//G// | !p![FA]>[GB][Ac]>[Bd] {/c}kA2 {F/G/A/B/c/d/e//f//g//}m Ha>g | f>dc<A TG2 {FG}[A,F] :|
(c/d//e//) | f>g {fg}a>d Tdcc (c/d//e//) | g>g {fg}aTg {fg}H[A2f2] z(c/d//e//) | !p!f>g {fg}"_rit."a>{gfe}d c<kA {F/G/A/B/c/d/e//f//g//}m Ha>g | f>dc>A TG2 {FG}[A,F] c/d//e// |
!p!f>g {fg}"_cres."a>d Tdcc (c/d//e//) | f>g {fg}a>g {fg}H[A2f2] z(c/d//e//) | | !p!f>g {fg}"_rit."a>{gfe}d c<kA {F/G/A/B/c/d/e//f//g//}m Ha>g | f>dc<A TG2 {FG}[A,F] |]


